X:1
T:Serres chaudes, Op.24
T:Lassitude
T:Ernest Chausson
T:Maurice Maeterlinck
T:Serres chaudes, Op.24
T:3. Lassitude
T:Creative Commons copyright waiver (CC0 1.0 Universal) 
T:Creative Commons copyright waiver (CC0 1.0 Universal) 
T:Creative Commons copyright waiver (CC0 1.0 Universal) 
T:Creative Commons copyright waiver (CC0 1.0 Universal) 
C:Ernest Chausson
Z:Maurice Maeterlinck
Z:Creative Commons copyright waiver (CC0 1.0 Universal)
%%score 1 { ( 2 3 ) | ( 4 5 ) }
L:1/8
Q:1/4=71
M:3/2
K:A
V:1 treble nm="Voice"
V:2 treble nm="Piano"
V:3 treble 
V:4 bass 
V:5 bass 
V:1
"^Calme" z F2 F F3 F F4 ||[M:2/2] =G2 G G B4 ||[M:3/2] z A2 F F2 z =G ^G2 G G/ G/ || %3
w: Ils ne sa- vent plus|oû se po- ser|ces bai- sers, Ces lè- vres sur des|
[M:2/2] A3 A A A- (3A A c ||[M:3/2] c4- c2- c z z2 c c ||[M:2/2] d2 B B G2 A B || %6
w: yeux a- veu- gles * et gla-|\- cés; _ _ Dé- sor-|mais en- dor- mis en leur|
[M:3/2] c2 A A G F- F z z2 F F ||[M:2/2] A2 A z/ A/ A4 | z G G G B3 G | =G3 G- G z z2 || %10
w: son- ge su- per- be, _ Ils re-|gar- dent rê- veurs|com- me des chiens dans|l'her- be, _|
[M:3/2] z F F3 F (3F F F B2 F2 | z F F F =G2 z G ^G G G G ||[M:2/2] A6 A2 | B4- B =G G G || %14
w: La fou- le des bre- bis gri- ses|à l'ho- ri- zon Brou- ter le clair de|lune é-|pars _ sur le ga-|
[M:3/2] F4 z4 z4 | z4 z ^A2 A =A2 G F | ^A4 c3 G- G ^E ^D C ||[M:2/2] G4 z =d d d | %18
w: \- zon.|Aux ca- res- ses du|ciel, va- gue * com- me leur|vie, In- dif- fé-|
 c4!<(! c c ^d e!<)! | e2!<(! =d c (e3 ^B)!<)! | z c2 c ^B2 B G | =B4- B z B2 | %22
w: rent et sans u- ne|flam- me d'en- vi- e|Pour ces ro- ses de|joie _ é-|
 ^A3!>(! A- A A2 c!>)! |!>(! G4- G2- G!>)! z | z!p! f2 f e d2 d ||[M:3/2] c8 d2 d d || %26
w: \- clo- ses _ sous leurs|pas _ _|Et ce long cal- me|vert qu'ils ne com-|
[M:2/2] B B =G4- G z | z8 | z8 | z8 |] %30
w: \- pren- nent pas. _||||
V:2
"^Calme"!mp! [F,F]4 [F,F]4 [F,F]4 ||[M:2/2] F8 ||[M:3/2] [F,F]4 [F,F]4 ^G4 || %3
[M:2/2] [A,A]6 [A,A]2 || %4
[M:3/2]!mf!!<(! [Cc]2 [^D^d]2 [^E^e]2!<)! [Ff]2 [=D=d]!>(! [Cc]2 [A,A]!>)! || %5
[M:2/2]!mp! [DF]4 [B,F]4 ||[M:3/2] [F,F]4 [F,F]4 [F,F]4 ||[M:2/2]!p! [D=FA]4 [FA]4 | [EG]4 [EG]4 | %9
!<(! [=G,E=G]8!<)! ||[M:3/2] [F,F]4 [F,F]4 [F,F]4 | [F,F]4 [F,F]4 ^G4 || %12
[M:2/2]!<(! [A,A]6 [A,A]2!<)! | F8 ||[M:3/2]!mp! [F,F]4 [F,F]4 [F,F]4 | %15
!p!"^accidentals in original seem to be incorrect:\n1) 2 separate sharps on the D\n2) No accidental on A, but A natural later in bar\n3) A sharp in left hand\n4) Redundant sharp on F\nMaybe should be same as bar 17\n                      V\n                      V\n                      V\n                      V\n                      V\n\n\n" [F,^DF]4 [F,DF]4 [F,DF]4 | %16
 [F,^DF]4 [^E,C^E]4 [E,CE]4 ||[M:2/2]!<(! [G,G]4!<)! [G,G]4 | [^A,C^A]4 [A,A]4 | [B,B]4 [^B,^B]4 | %20
 [FAc]4 [G^B]4 | [=G=B]8 | [^DF^A]4 [FA]4 | [EG]4 [FG]4 |!p! [FA]4 [A,A]4 || %25
[M:3/2] [F,F]4 [F,F]4 [F,F]4 ||[M:2/2] F8 | F8- | F8- | F2- F z z4 |] %30
V:3
 C2 D2 E2 F2 D C2 B, ||[M:2/2] [=G,B,]2 G,2- G, A,2 B, ||[M:3/2] C2 D2 E2 =G2 F D2 C || %3
[M:2/2] C2 ^D2 ^E G2 F ||[M:3/2] [FA]4 [Ac]4 [FA]4 ||[M:2/2] [G,B,]2 A,2 D C2 D || %6
[M:3/2] C2 D2 E2 F2 D C2 B, ||[M:2/2] A,2 _B,2 =C2 D2 | [G,C]2 ^A,2 B,2 ^B,C | %9
 B,2 ^B,2!>(! ^C2!>)! =C=B, ||[M:3/2] [CE]2 D2 E2 F2 D C2 B, | C2 D2 E2 =G2 F D2 C || %12
[M:2/2] C2 ^D2 ^E G2 F | [=G,B,]2!>(! G,2 A,2 B,2!>)! ||[M:3/2] C2 D2 E2 F2 D C2 B, | %15
 !courtesy!^A,2 B,2 ^B,2 C2 B, =B,2 =A, | ^A,2 B,2 G,2 ^^G,2 A, G,2 ^G, || %17
[M:2/2] E2 ^E2 [DF]!>(! =E2 D!>)! | ^D2 E2 [E^G] F2 E | [E=G]2 F2 [FA]2 ^GF | C2 ^D2 E D2 G, | %21
 D2 ^D2 E D2 =D | ^B,2 C2 =D2 C2 | =C2 ^C2 D C2 B, | C2 ^D2 E2 F2 ||[M:3/2] C2 D2 E2 F2 D C2 B, || %26
[M:2/2] [=G,B,]3 G,- G, A,2 B, | A,6 A,2- | A,6 A,2- | A,2- A, x5 |] %30
V:4
 C,2 D,2 E,2 F,2 D, C,2 B,, ||[M:2/2] [=G,,B,,]2 G,,2- G,, A,,2 B,, || %2
[M:3/2] C,2 D,2 E,2 =G,2 F, D,2 C, ||[M:2/2] C,2 ^D,2 ^E, G,2 F, ||[M:3/2] A,4 A,4 A,4 || %5
[M:2/2] [D,F,]4 F,4 ||[M:3/2] C,2 D,2 E,2 F,2 D, C,2 B,, ||[M:2/2] A,,2 _B,,2 =C,2 D,2 | %8
 G,,2 ^A,,2 B,,2 ^B,,C, | =B,,2 ^B,,2 ^C,2 =C,=B,, ||[M:3/2] [C,E,]2 D,2 E,2 F,2 D, C,2 B,, | %11
 F,,4 F,,4 [F,,^G,]4 ||[M:2/2] C,2 ^D,2 ^E, G,2 F, | [=G,,B,,]2 G,,2 A,,2 B,,2 || %14
[M:3/2] C,2 D,2 E,2 F,2 D, C,2 B,, | ^A,,2 B,,2 ^B,,2 C,2 B,, =B,,2 =A,, | %16
 ^A,,2 B,,2 G,,2 ^^G,,2 A,, G,,2 ^G,, ||[M:2/2] E,2 ^E,2 F, =E,2 D, | ^D,2 E,2 ^G, F,2 E, | %19
 [C,E,]2 F,2 [F,A,]2 ^G,F, | [F,A,]4 [G,^B,]4 | [=G,=B,]8 | [F,^A,]4 [F,A,]4 | [E,G,]4 G,4 | %24
 C,2 =D,2 E,2 F,2 ||[M:3/2] C,2 D,2 E,2 F,2 D, C,2 B,, ||[M:2/2] B,,3 =G,,- G,, A,,2 B,, | %27
{/F,,,} [F,,C,]6 [F,,C,]2- | [F,,C,]6 [F,,C,]2- | [F,,C,]2- [F,,C,] z z4 |] %30
V:5
 F,,4 F,,4 F,,4 ||[M:2/2] [F,,F,]8 ||[M:3/2] F,,4 F,,4 [F,,^G,]4 ||[M:2/2] [F,,F,]6 F,,2 || %4
[M:3/2] [F,,C,^D,]2 =D,2 ^E,2 F,2 =D, C,2 A,, ||[M:2/2] [F,,B,,]2 A,,2 [B,,D,] C,2 D, || %6
[M:3/2] F,,4 F,,4 F,,4 ||[M:2/2] [D,,=F,]4 [D,,F,]4 | [C,,E,]4 [C,,E,]4 | [E,,E,]8 || %10
[M:3/2] F,,4 F,,4 F,,4 | C,2 D,2 E,2 =G,2 F, D,2 C, ||[M:2/2] [F,,F,]6 F,,2 | [F,,F,]8 || %14
[M:3/2] F,,4 F,,4 F,,4 | [^D,,^D,]4 [D,,D,]4 [D,,D,]4 | [^D,,^D,]4 [C,,C,]4 [C,,C,]4 || %17
[M:2/2] E,,4 [E,,B,,]4 | [=G,,C,=G,]4 [F,,C,]4 | [=G,,=G,]4 [^G,,^D,]4 | %20
{/C,,} C,2 ^D,2 E, D,2 G,, | D,2 ^D,2 E, D,2 =D, | ^B,,2 C,2 =D,2 C,2 | =C,2 ^C,2 [D,E,] C,2 B,, | %24
 F,,4 F,,4 ||[M:3/2] F,,4 F,,4 F,,4 ||[M:2/2] [F,,F,]8 | x8 | x8 | x8 |] %30

